X: 140
T: Shaqiu shang de xianghui The white peak of sand dunes
%%abc-version 2.0
%%abcx-abcm2ps-target-version 5.9.1 (29 Sep 2008)
%%abc-creator hum2abc beta
%%abcx-conversion-date 2013/10/02 07:44:27
%%abc-edited-by Helmut Schaffrath
%%humdrum-veritas 1239108726
%%humdrum-veritas-data 4096280723
%%continueall 1
%%barnumbers 0
L: 1/8
M: 2/4
K: C
A cA2 [I:setbarnb 1]| 
D EA2 | 
A GE2 | 
E CA,2 | 
A cA2 | 
D EA2 | 
GE3- | 
E4 | 
A cA2 | 
D EA2 | 
A GE2 | 
E CA,2 | 
E E/ D/ C A | 
G E E C | 
CA,3- | 
A,4 |]  



